www/assets/icons/phone_missed.svg

<svg width="24" height="24" viewBox="0 0 24 24" xmlns="http://www.w3.org/2000/svg" fill='currentColor'><g clip-path="url(#clip0_1616_2965)"><path d="M6.495 5.56982L11.995 11.0698L18.995 4.06982L17.995 3.06982L11.995 9.06982L7.495 4.56982H10.995V3.06982H4.995V9.06982H6.495V5.56982ZM23.705 16.7398C20.655 13.8498 16.535 12.0698 11.995 12.0698C7.455 12.0698 3.335 13.8498 0.284995 16.7398C0.104995 16.9198 -0.00500488 17.1698 -0.00500488 17.4498C-0.00500488 17.7298 0.104995 17.9798 0.284995 18.1598L2.765 20.6398C2.945 20.8198 3.195 20.9298 3.475 20.9298C3.745 20.9298 3.99499 20.8198 4.17499 20.6498C4.96499 19.9098 5.865 19.2898 6.835 18.7998C7.165 18.6398 7.395 18.2998 7.395 17.8998V14.7998C8.845 14.3198 10.395 14.0698 11.995 14.0698C13.595 14.0698 15.145 14.3198 16.595 14.7898V17.8898C16.595 18.2798 16.825 18.6298 17.155 18.7898C18.135 19.2798 19.025 19.9098 19.825 20.6398C20.005 20.8198 20.255 20.9198 20.525 20.9198C20.805 20.9198 21.055 20.8098 21.235 20.6298L23.715 18.1498C23.895 17.9698 24.005 17.7198 24.005 17.4398C24.005 17.1598 23.885 16.9198 23.705 16.7398Z"/></g><defs><clipPath id="clip0_1616_2965"><rect width="24" height="24"/></clipPath></defs></svg>

<svg xmlns="http://www.w3.org/2000/svg" width="24" height="24" viewBox="0 0 24 24" fill='currentColor'><g clip-path="url(#a)"><path d="m6.495 5.57 5.5 5.5 7-7-1-1-6 6-4.5-4.5h3.5v-1.5h-6v6h1.5zm17.21 11.17a16.97 16.97 0 0 0-11.71-4.67c-4.54 0-8.66 1.78-11.71 4.67-.18.18-.29.43-.29.71s.11.53.29.71l2.48 2.48c.18.18.43.29.71.29.27 0 .52-.11.7-.28.79-.74 1.69-1.36 2.66-1.85.33-.16.56-.5.56-.9v-3.1c1.45-.48 3-.73 4.6-.73s3.15.25 4.6.72v3.1c0 .39.23.74.56.9.98.49 1.87 1.12 2.67 1.85.18.18.43.28.7.28.28 0 .53-.11.71-.29l2.48-2.48c.18-.18.29-.43.29-.71s-.12-.52-.3-.7"/></g><defs><clipPath id="a"><path d="M0 0h24v24H0z"/></clipPath></defs></svg>
